X: 88
T: Presque transi
N: Derived from Ock3016-Presque_transi.krn
C: Johannes Ockeghem
%%abc-version 2.0
%%abcx-abcm2ps-target-version 5.9.1 (29 Sep 2008)
%%abc-creator hum2abc beta
%%abcx-conversion-date 2019/02/17 07:26:16
%%abc-edited-by Jesse Rodin
%%abc-edited-by Jesse Rodin (8/16/2012)
%%abcx-initial-encoding-date 2015/11/05/
%%humdrum-veritas 3639187397
%%humdrum-veritas-data 2607311746
%%linebreak <none>
%%barnumbers 0
L: 1/4
M: 3/1
Q: 1/2=120
V: 1 clef=treble
V: 2 clef=treble-8
V: 3 clef=bass
K: C
[V:1] E6C2C4 | 
[V:2] B4G2F2A4 | 
[V:3] E,6A,,2A,,4 | 
[V:1] C4D6CD | 
[V:2] G4A6B2 | 
[V:3] E,4F,6E,D, | 
[V:1] E4z4E4 | 
[V:2] c8c4 | 
[V:3] C,8C,4 | 
[V:1] E4D4G2F2 | 
[V:2] B2B4A2c2d2 | 
[V:3] G,6F,2E,2D,2 | 
[V:1] E4D2E4C2 | 
[V:2] B2G2A2G2c4 | 
[V:3] G,4F,2G,2A,4 | 
[V:1] B,4z4D4 | 
[V:2] d4G8 | 
[V:3] G,8B,4 | 
[V:1] E4F6E2 | 
[V:2] C4D8 | 
[V:3] C4A,6G,2 | 
[V:1] G4A8 | 
[V:2] C4c6A2 | 
[V:3] E,4z4F,4 | 
[V:1] G4E2F3EDC | 
[V:2] B4A4c4 | 
[V:3] G,4A,8 | 
[V:1] B,3CD2E3FG2 | 
[V:2] d3GA2B2c2G2- | 
[V:3] G,4F,2E,2C,3D, | 
[V:1] E2D3CC4B,2 | 
[V:2] G2A3GG4F2 | 
[V:3] E,2F,2C,4D,4 | 
[V:1] C4z4z4 | 
[V:2] G4z4G4 | 
[V:3] C,3D,E,2E,3D,C,B,, | 
[V:1] C4C4B,4 | 
[V:2] A3G/F/E2F2G4 | 
[V:3] A,,4A,,4G,,4 | 
[V:1] A,6G,2G,4 | 
[V:2] E4z4E4 | 
[V:3] C,6D,2E,2D,E, | 
[V:1] A,4B,2A,2D4 | 
[V:2] D4F4z2F2- | 
[V:3] F,4D,2D,4C,B,, | 
[V:1] C2B,3A,A,4^G,2 | 
[V:2] F2G2E2F2D4 | 
[V:3] A,,2G,,2C,2D,2B,,4 | 
[V:1] A,6G,2C2D2 | 
[V:2] E12 | 
[V:3] A,,2C,4D,2E,2F,2 | 
[V:1] B,4z4z4 | 
[V:2] z12 | 
[V:3] G,4z4z4 | 
[V:1] C4F6E2 | 
[V:2] F8D4 | 
[V:3] A,4A,4A,2B,2 | 
[V:1] E8G2A2 | 
[V:2] C8E4 | 
[V:3] C8C4 | 
[V:1] B4c6B2 | 
[V:2] G4F4c3d | 
[V:3] G,4A,8 | 
[V:1] A3GB4c4 | 
[V:2] e4d4z2c2 | 
[V:3] C4G,4A,4 | 
[V:1] B2A4G4^F2 | 
[V:2] d2e4d4c2 | 
[V:3] G,2C4G,2A,4 | 
[V:1] G4z4B4 | 
[V:2] d12 | 
[V:3] G,8z4 | 
[V:1] B4c6B2 | 
[V:2] z4c4F4- | 
[V:3] G,4A,6B,2 | 
[V:1] A4G2A3GE2- | 
[V:2] F4E2F2C3D | 
[V:3] C8C4 | 
[V:1] E2A2G2FED4 | 
[V:2] E2F2E2F2G4 | 
[V:3] G,2C4A,2B,4 | 
[V:1] C4z2B,4A,2 | 
[V:2] C3DE6A,2 | 
[V:3] C2A,2G,8 | 
[V:1] C2D2E4A4 | 
[V:2] A,3B,C4c3A | 
[V:3] A,4G,2A,4F,2 | 
[V:1] G2F3EE4D2 | 
[V:2] c2d2B2c2A4 | 
[V:3] E,2D,2G,2A,2F,4 | 
[V:1] E12 ||  
[V:2] B12 ]|:  
[V:3] E,12 ||  
[V:1] [K:clef=treble]E8A4 | 
[V:2] [K:clef=treble-8]c6A2c4 | 
[V:3] [K:clef=bass]A,8F,4 | 
[V:1] A4G8 | 
[V:2] d4e8- | 
[V:3] F,4E,8 | 
[V:1] G8A4 | 
[V:2] e8f4 | 
[V:3] E,8D,4 | 
[V:1] B6ABc4 | 
[V:2] d2e4d2f4 | 
[V:3] G,8A,4 | 
[V:1] B2A4G2A4 | 
[V:2] g2f2d2c2e4 | 
[V:3] G,2A,2B,2C4A,2 | 
[V:1] B4z4E4 | 
[V:2] E6C2C4 | 
[V:3] G,4G,8 | 
[V:1] E4F6E2 | 
[V:2] C4F8 | 
[V:3] G,4A,6B,2 | 
[V:1] E4z4D4 | 
[V:2] C4E2F2G4 | 
[V:3] C6A,2B,4 | 
[V:1] E4A6G2 | 
[V:2] C4D2F4E2 | 
[V:3] C4F,8 | 
[V:1] G4F2D2E4 | 
[V:2] C4D4A4 | 
[V:3] C4z4C4 | 
[V:1] D4E2G4^F2 | 
[V:2] B6d4c2 | 
[V:3] B,2G,4B,2A,4 | 
[V:1] G6E2E4 | 
[V:2] d4G2A2B4 | 
[V:3] G,4z4G,4 | 
[V:1] C4F6E2 | 
[V:2] c4F8 | 
[V:3] A,8A,2B,2 | 
[V:1] E4D2C2A,4 | 
[V:2] C4z4F4 | 
[V:3] C4B,2A,4F,2 | 
[V:1] G,4z2A,4G,2 | 
[V:2] C4c8 | 
[V:3] E,4F,6E,2 | 
[V:1] C2D2E4F4- | 
[V:2] A2B2c4z2A2- | 
[V:3] F,2E,D,C,4D,4- | 
[V:1] F2E2E4D2E2- | 
[V:2] ABc2B2G4C2- | 
[V:3] D,2C,2G,3A,B,2C2- | 
[V:1] EFG4FED4 |[1 
[V:2] CDE4C2G4 | 
[V:3] C2B,2G,2C4B,2 | 
[V:1] !fermata!C12 :|][2 
[V:2] !fermata!C12 :|]  
[V:3] !fermata!C12 :|]  
[V:1] C4B,3A,C2D2 | 
[V:2] C2D2E4z2F2 | 
[V:3] C2A,2G,4A,2G,F, | 
[V:1] E2F4E4D2 | 
[V:2] G2A2B2c2A4 | 
[V:3] E,2D,2G,2A,2F,4 | 
[V:1] E8 :|]  
[V:2] B8 :|]  
[V:3] E,8 :|]  



